X:634
T:Reel 634
M:4/4
K:Gmaj
L:1/8
d|g3d edBd|dBgB dBgd|edGe dGBd|egfa gaba|gedB dege|dBgB BAAB|cded gdBd|dega bgg|a|bagb agfg|egdg egdg|b2gb a2ba|gedB BAA2|bggc' baga|bgd'g egdg|bd'd'c' d'e'd'b|c'abg afg|
